!!!COM: Hugo Wolf
!!!CNT: Deutscher
!!!TXO: Deutsche 
!!!OTL: Beherzigung
!!!ODT: 1888/12/30
!!!ONM: No. 18
!!!LYR: Johann Wolfgang von Goethe
!!!ENC: Brian Bice
!!!YOR: 45 Songs on Poems of Goethe and Eichendorff, Dover Publications, 1995
!!NB: Vocal melody and text only encoded.
**kern	**silbe
*clefG2	*
*k[]	*
*M4/4	*
=1	=1
2r	.
4r	.
{4dd-	{Ach,
=2	=2
4r	.
8r	.
8a	was
8a	soll
8a	der
8a	Mensch
8dd-	ver-
=3	=3
4dd-	-lan-
8e}	-gen?}
8r	.
2r	.
=4	=4
4r	.
{8g	{Ist
8g	es
8g	bes-
8g	-ser,
8.cc	ru-
16cc	-hig
=5	=5
4cc	blei-
8d}	-ben?}
8r	.
4r	.
{[4dd	{klam-
=6	=6
8dd]	|
8ee-	-mernd
8dd	fest
8ee-	sich
8.dd	an-
16ff	-zu-
[4ff	-han-
=7	=7
4ff]	|
8g}	-gen?}
8r	.
4r	.
{8cc#	{Ist
8dd	es
=8	=8
8ee	bes-
8ee	-ser,
8ff#	sich
8ff#	zu
4gg	trei-
4a#}	-ben?}
=12	=12
2r	.
4r	.
{8g	{Soll
8g	er
=13	=13
8g	sich
8g	ein
[4dd	Ha2us-
8dd]	|
8g	-chen
8g	bau-
8f}	-en?}
=14	=14
2r	.
4r	.
{8a-	{soll
8a-	er
=15	=15
8a-	un-
8a-	-ter
[4ee-	Zel-
8ee-]	|
8dd	-ten
8dd-	le-
8cc}	-ben?}
=16	=16
2r	.
{8an	{soll
8bn	er
8cc#	auf
8dd	die
=17	=17
4.dd#	Fel-
8ee	-sen
4ee	trau-
8a#}	-en?}
8r	.
=18	=18
8r	.
{4b	{Selbst
8b	die
4ee	fe-
4ee	-sten
=19	=19
4.gg	Fel-
8gg	-sen
4gg	be-
4cc#}	-ben.}
=25	=25
*k[f#c#g#]	*
2r	.
{4cc#	{Ei-
4cc#	-nes
=26	=26
4cc#	schickt
4cc#	sich
4b	nicht
4ee	fu2r
=27	=27
4ee	al-
4f#}	-le;}
{4f#	{se-
4ccn	-he
=28	=28
4b	je-
4dd#	-der,
4ee	wie
4ddn	er's
=29	=29
4cc#	trei-
4b}	-be,}
{4cc#	{se-
4dd	-he
=30	=30
4ee	je-
4gg#	-der,
4aa	we
4gg#	er
=31	=31
4ff#	blei-
4gn}	-be,}
{4f#	{und
4ffn	wer
=32	=32
8.ee	steht,
16cc#	dass
8.b	er
16a	nicht
[2ee	fal-
=33	=33
4ee]	|
4a}	-le!}
2r	.
*-	*-
